svg/black/etc.svg

<svg xmlns="http://www.w3.org/2000/svg" width="32" height="32" viewBox="0 0 32 32">
  <path fill-rule="evenodd" d="M16,32 C7.163444,32 0,24.836556 0,16 C0,7.163444 7.163444,0 16,0 C24.836556,0 32,7.163444 32,16 C32,24.836556 24.836556,32 16,32 Z M9.26925954,14.7537415 L16.5617053,11.7714286 L23.6297681,14.829932 L16.5504862,4 L9.26925954,14.7537415 Z M9.29169783,18.062585 L16.6402393,28 L24,18.062585 L16.5729245,22.155102 L9.29169783,18.062585 Z M16.5953628,13.229932 L9,16.3319728 L16.5953628,20.4244898 L23.9775617,16.4190476 L16.5953628,13.229932 Z"/>
</svg>

<svg xmlns="http://www.w3.org/2000/svg" width="32" height="32"><path fill-rule="evenodd" d="M16 32C7.163 32 0 24.837 0 16S7.163 0 16 0s16 7.163 16 16-7.163 16-16 16zM9.27 14.754l7.292-2.983 7.068 3.059L16.55 4 9.27 14.754zm.022 3.309L16.64 28 24 18.063l-7.427 4.092-7.281-4.092zm7.303-4.833L9 16.332l7.595 4.092 7.383-4.005-7.383-3.19z"/></svg>
